dist/svgs/unicons/line/archive.svg

<svg xmlns="http://www.w3.org/2000/svg" viewBox="0 0 24 24"><path d="M10 14h4a1 1 0 000-2h-4a1 1 0 000 2zm9-11H5a3 3 0 00-3 3v3a1 1 0 001 1h1v8a3 3 0 003 3h10a3 3 0 003-3v-8h1a1 1 0 001-1V6a3 3 0 00-3-3zm-1 15a1 1 0 01-1 1H7a1 1 0 01-1-1v-8h12zm2-10H4V6a1 1 0 011-1h14a1 1 0 011 1z"/></svg>

<svg xmlns="http://www.w3.org/2000/svg" viewBox="0 0 24 24"><path d="M10,14h4a1,1,0,0,0,0-2H10a1,1,0,0,0,0,2ZM19,3H5A3,3,0,0,0,2,6V9a1,1,0,0,0,1,1H4v8a3,3,0,0,0,3,3H17a3,3,0,0,0,3-3V10h1a1,1,0,0,0,1-1V6A3,3,0,0,0,19,3ZM18,18a1,1,0,0,1-1,1H7a1,1,0,0,1-1-1V10H18ZM20,8H4V6A1,1,0,0,1,5,5H19a1,1,0,0,1,1,1Z"/></svg>
